Gurmukhi/0A39.svg

<svg enable-background="new 0 0 336 592" viewBox="0 0 336 592" xmlns="http://www.w3.org/2000/svg"><path d="m88.924469 206.980087c-4.432983-11.403244-4.104073-11.905899 7.620773-11.890838 53.310211.068512 106.620423.177169 159.930558.143661 3.372894-.002121 5.261169.934342 6.286834 4.183457 1.150605 3.644851 2.786927 7.133743 4.0206 10.755661 1.667602 4.895904.26596 6.889038-4.904663 6.945785-7.995835.087753-15.993271.017395-23.98993.04628-6.764679.024429-6.747177.044632-6.745834 7.035538.006622 34.152786.108948 68.306076-.05867 102.458023-.053009 10.802948-.742142 21.601898-3.470673 32.164459-6.685104 25.878906-24.092437 33.592011-46.983581 29.857269-34.937134-5.700012-67.748696-37.810302-74.304711-72.604217-5.013305-26.606476 7.45337-47.540375 37.442559-51.519135 9.321777-1.236725 18.6194-.571838 27.925644-.850403.332458-.009948.665969.018036.999054.024994 4.471115.093232 4.506683 4.057953 5.387466 6.776123 1.419769 4.381562 5.343124 8.388825 2.951462 13.510956-.822098 1.760651-2.924591 1.237671-4.546784 1.293976-6.482284.225037-12.966827-.275513-19.449737.716126-20.596497 3.15036-29.291107 14.833038-24.502243 35.11029 4.666885 19.760712 16.305374 35.019318 34.401611 44.411377 19.432572 10.085693 34.396835 1.058258 36.798615-21.033264 1.482956-13.640137.847015-27.275879.924606-40.912445.149719-26.321778.042969-52.645035.038406-78.967667-.001281-7.454605-.007858-7.471985-7.277542-7.473358-31.487198-.005905-62.974609.064468-94.461502-.034622-11.218033-.035294-9.406052 2.175125-14.032318-10.148026z"/></svg>

<svg version="1.1" id="Layer_1" xmlns="http://www.w3.org/2000/svg" xmlns:xlink="http://www.w3.org/1999/xlink" x="0px" y="0px"
	 width="100%" viewBox="0 0 336 592" enable-background="new 0 0 336 592" xml:space="preserve">
<path fill="#000000" opacity="1.000000" stroke="none" 
	d="
M88.924469,206.980087 
	C84.491486,195.576843 84.820396,195.074188 96.545242,195.089249 
	C149.855453,195.157761 203.165665,195.266418 256.475800,195.232910 
	C259.848694,195.230789 261.736969,196.167252 262.762634,199.416367 
	C263.913239,203.061218 265.549561,206.550110 266.783234,210.172028 
	C268.450836,215.067932 267.049194,217.061066 261.878571,217.117813 
	C253.882736,217.205566 245.885300,217.135208 237.888641,217.164093 
	C231.123962,217.188522 231.141464,217.208725 231.142807,224.199631 
	C231.149429,258.352417 231.251755,292.505707 231.084137,326.657654 
	C231.031128,337.460602 230.341995,348.259552 227.613464,358.822113 
	C220.928360,384.701019 203.521027,392.414124 180.629883,388.679382 
	C145.692749,382.979370 112.881187,350.869080 106.325172,316.075165 
	C101.311867,289.468689 113.778542,268.534790 143.767731,264.556030 
	C153.089508,263.319305 162.387131,263.984192 171.693375,263.705627 
	C172.025833,263.695679 172.359344,263.723663 172.692429,263.730621 
	C177.163544,263.823853 177.199112,267.788574 178.079895,270.506744 
	C179.499664,274.888306 183.423019,278.895569 181.031357,284.017700 
	C180.209259,285.778351 178.106766,285.255371 176.484573,285.311676 
	C170.002289,285.536713 163.517746,285.036163 157.034836,286.027802 
	C136.438339,289.178162 127.743729,300.860840 132.532593,321.138092 
	C137.199478,340.898804 148.837967,356.157410 166.934204,365.549469 
	C186.366776,375.635162 201.331039,366.607727 203.732819,344.516205 
	C205.215775,330.876068 204.579834,317.240326 204.657425,303.603760 
	C204.807144,277.281982 204.700394,250.958725 204.695831,224.636093 
	C204.694550,217.181488 204.687973,217.164108 197.418289,217.162735 
	C165.931091,217.156830 134.443680,217.227203 102.956787,217.128113 
	C91.738754,217.092819 93.550735,219.303238 88.924469,206.980087 
z"/>
</svg>
